frontend/public/svg/interface/paint-bucket.svg

<svg width="177" height="153" viewBox="0 0 177 153" fill="none" xmlns="http://www.w3.org/2000/svg">
<g clip-path="url(#clip0)">
<path d="M149.826 56.4919C150.14 56.6266 150.431 56.7764 150.738 56.8825C165.213 61.8026 172.745 72.6828 175.93 87.0551C176.924 91.5402 176.339 96.1706 174.894 100.58C174.319 102.42 173.358 104.115 172.076 105.549C170.794 106.984 169.221 108.125 167.464 108.896C165.706 109.667 163.804 110.049 161.887 110.017C159.969 109.986 158.081 109.54 156.35 108.711C153.791 107.494 151.575 105.532 149.232 103.865C147.639 102.73 146.102 101.515 144.239 100.107C143.77 103.528 143.564 106.488 142.937 109.357C139.756 123.91 132.435 135.936 120.732 145.12C118.25 146.98 115.589 148.588 112.79 149.92C105.485 153.581 98.2503 153.03 91.1889 149.101C87.0471 146.714 83.3725 143.586 80.3468 139.87C79.6351 139.024 78.9233 138.182 78.1209 137.224C75.7974 138.431 73.6025 139.708 71.2964 140.731C68.5749 141.938 65.757 142.926 62.9811 144.008C62.3657 144.247 61.6068 144.327 61.1584 144.745C59.3557 146.426 57.2858 146.127 55.1971 145.722C53.1362 145.323 51.0804 144.888 49.0408 144.392C45.3661 143.564 41.8605 142.106 38.6771 140.082C22.9886 129.788 12.4374 115.477 6.01018 97.9194C2.3667 87.9613 0.772642 77.3614 1.32438 66.764C1.41385 62.7311 2.60536 58.8006 4.76851 55.4039C6.07751 53.4234 7.61561 51.7326 10.066 51.1134C10.9133 50.8613 11.7096 50.4598 12.4176 49.9278C29.7976 37.721 48.5357 27.8379 67.0556 17.5843C76.2658 12.4852 85.6391 7.67438 94.7322 2.37473C99.7793 -0.568077 104.709 -0.0165961 109.729 1.62408C114.627 3.22505 118.853 6.14376 122.735 9.50192C135.815 20.8018 144.037 35.1988 149.035 51.6089C149.407 53.217 149.671 54.8483 149.826 56.4919ZM134.529 95.78C133.692 95.071 133.209 94.6413 132.706 94.2369C128.468 90.8338 124.182 87.5076 120.606 83.3368C108.85 69.7947 100.004 53.9538 94.6229 36.8082C92.5387 30.2158 91.5934 23.3126 91.8282 16.3987C91.8768 15.0158 91.9913 13.6349 92.0981 11.8849C90.7444 12.5613 89.7531 13.0098 88.8052 13.5379C84.061 16.1786 79.3122 18.8115 74.5945 21.4985C58.1308 30.8738 41.6792 40.2708 25.2397 49.6895C21.0189 52.1219 17.1209 55.137 12.8406 57.4444C11.8597 57.9095 11.0165 58.6244 10.3946 59.5181C9.77264 60.4119 9.39359 61.4536 9.29479 62.5402C8.31514 68.712 9.23396 74.7728 10.398 80.7743C13.5608 97.0815 21.3683 110.929 32.7598 122.853C39.2446 129.639 46.6344 134.917 55.7689 137.415C56.7951 137.778 57.8954 137.876 58.9688 137.7C64.4656 136.197 69.1359 133.046 73.8678 130.24C65.5266 108.521 65.6049 86.6488 69.6192 64.5103C65.2194 61.3005 64.3912 58.9373 65.9776 54.051C66.9268 51.131 69.2226 49.2982 72.1615 49.4746C78.5396 49.8535 80.3378 51.1121 81.5646 55.1272C81.9528 56.7387 81.9276 58.4229 81.4915 60.0219C80.8334 62.8078 78.0543 63.5605 75.6097 65.1897C75.2286 71.5637 74.6197 78.1075 74.5129 84.6572C74.4282 89.8748 74.8611 95.1087 75.2351 100.324C75.7805 107.768 77.3322 115.102 79.8479 122.124C80.2731 123.318 80.8619 124.452 81.3459 125.549L134.529 95.78ZM116.941 64.5207C124.457 58.1474 133.199 56.2112 142.439 55.5563C142.331 55.0132 142.192 54.4767 142.024 53.9495C138.495 45.0614 134.103 36.5461 128.909 28.528C124.676 22.1122 119.308 16.5332 113.071 12.0685C111.13 10.6602 108.823 9.72979 106.619 8.72194C105.69 8.3802 104.714 8.18026 103.726 8.12882C103.173 8.0156 102.599 8.12706 102.127 8.43886C101.656 8.75065 101.326 9.23745 101.21 9.79301C100.864 10.7319 100.646 11.7138 100.563 12.7117C100.454 16.1564 100.518 19.6044 100.753 23.0427C101.495 30.9857 104.23 38.4007 107.179 45.7233C109.755 52.3222 113.028 58.624 116.941 64.5201V64.5207ZM119.836 68.71C119.874 69.0226 119.946 69.3292 120.05 69.6254C120.381 70.2023 120.732 70.7694 121.105 71.3182C125.38 77.5495 130.418 83.2138 136.1 88.1775C137.787 89.7798 139.958 90.7674 142.268 90.9836C146.834 91.3508 151.101 93.4179 154.233 96.782C155.516 98.1609 156.937 99.4031 158.475 100.488C162.185 103.027 166.113 101.589 167.214 97.2123C167.997 94.097 168.423 90.9068 167.786 87.6417C166.257 79.7 161.945 72.5741 155.635 67.5603C152.536 64.9942 148.749 63.4113 144.754 63.0123C135.894 62.1164 127.668 64.1945 119.836 68.71H119.836ZM85.4211 133.003C87.5117 135.157 89.0446 136.923 90.7651 138.477C98.1067 145.103 104.731 145.631 113.1 140.364C113.287 140.246 113.474 140.127 113.654 139.997C125.187 131.704 131.763 120.289 134.865 105.955L85.4211 133.003Z" fill="black"/>
</g>
<defs>
<clipPath id="clip0">
<rect width="176" height="153" fill="white" transform="translate(0.777344)"/>
</clipPath>
</defs>
</svg>

<svg xmlns="http://www.w3.org/2000/svg" width="177" height="153" fill="none" viewBox="0 0 177 153"><g clip-path="url(#a)"><path fill="#000" d="M149.826 56.492c.314.135.605.284.912.39 14.475 4.92 22.007 15.8 25.192 30.173.994 4.485.409 9.116-1.036 13.525a13.5 13.5 0 0 1-2.818 4.969 13.4 13.4 0 0 1-4.612 3.347 13.33 13.33 0 0 1-11.114-.185c-2.559-1.217-4.775-3.179-7.118-4.846-1.593-1.135-3.13-2.35-4.993-3.758-.469 3.421-.675 6.381-1.302 9.25-3.181 14.553-10.502 26.579-22.205 35.763a46.7 46.7 0 0 1-7.942 4.8c-7.305 3.661-14.54 3.11-21.601-.819a39.3 39.3 0 0 1-10.842-9.231c-.712-.846-1.424-1.688-2.226-2.646-2.324 1.207-4.518 2.484-6.825 3.507-2.721 1.207-5.539 2.195-8.315 3.277-.615.239-1.374.319-1.823.737-1.802 1.681-3.872 1.382-5.96.977a133 133 0 0 1-6.157-1.33 32.7 32.7 0 0 1-10.364-4.31C22.99 129.788 12.437 115.477 6.01 97.919a78.8 78.8 0 0 1-4.686-31.155 22.06 22.06 0 0 1 3.445-11.36c1.309-1.98 2.847-3.671 5.297-4.29a7.5 7.5 0 0 0 2.352-1.186c17.38-12.207 36.118-22.09 54.638-32.344 9.21-5.099 18.583-9.91 27.676-15.21 5.047-2.942 9.977-2.39 14.997-.75 4.898 1.601 9.124 4.52 13.006 7.878 13.08 11.3 21.302 25.697 26.3 42.107.372 1.608.636 3.24.791 4.883M134.529 95.78c-.837-.709-1.32-1.139-1.823-1.543-4.238-3.403-8.524-6.73-12.1-10.9a130.65 130.65 0 0 1-25.983-46.529 60.9 60.9 0 0 1-2.795-20.41c.049-1.382.163-2.763.27-4.513-1.354.676-2.345 1.125-3.293 1.653-4.744 2.64-9.493 5.273-14.21 7.96A21673 21673 0 0 0 25.24 49.69c-4.221 2.432-8.12 5.447-12.4 7.754a6.24 6.24 0 0 0-2.445 2.074 6.3 6.3 0 0 0-1.1 3.022c-.98 6.172-.061 12.233 1.103 18.234 3.163 16.308 10.97 30.155 22.362 42.079 6.485 6.786 13.874 12.064 23.009 14.562a6.46 6.46 0 0 0 3.2.285c5.497-1.503 10.167-4.654 14.899-7.46-8.341-21.719-8.263-43.591-4.249-65.73-4.4-3.21-5.228-5.573-3.641-10.459.949-2.92 3.245-4.753 6.184-4.576 6.378.378 8.176 1.637 9.403 5.652a9.84 9.84 0 0 1-.073 4.895c-.659 2.786-3.438 3.538-5.882 5.168-.381 6.374-.99 12.918-1.097 19.467-.085 5.218.348 10.452.722 15.667a82.5 82.5 0 0 0 4.613 21.8c.425 1.194 1.014 2.328 1.498 3.425zm-17.588-31.26c7.516-6.373 16.258-8.309 25.498-8.964a15 15 0 0 0-.415-1.606 145.5 145.5 0 0 0-13.115-25.422 62.7 62.7 0 0 0-15.838-16.46c-1.941-1.408-4.248-2.338-6.452-3.346a9.9 9.9 0 0 0-2.893-.593 2.13 2.13 0 0 0-1.599.31 2.15 2.15 0 0 0-.917 1.354c-.346.939-.564 1.92-.647 2.919-.109 3.444-.045 6.892.19 10.33.742 7.944 3.477 15.359 6.426 22.681a99.3 99.3 0 0 0 9.762 18.797m2.895 4.19q.057.471.214.915a26 26 0 0 0 1.055 1.693 90 90 0 0 0 14.995 16.86 10.36 10.36 0 0 0 6.168 2.806 18.36 18.36 0 0 1 11.965 5.798 27.3 27.3 0 0 0 4.242 3.706c3.71 2.539 7.638 1.101 8.739-3.276.783-3.115 1.209-6.305.572-9.57a33.8 33.8 0 0 0-12.151-20.082 20.2 20.2 0 0 0-10.881-4.548c-8.86-.896-17.086 1.183-24.918 5.698m-34.415 64.293c2.09 2.154 3.624 3.92 5.344 5.474 7.342 6.626 13.966 7.154 22.335 1.887.187-.118.374-.237.554-.367 11.533-8.293 18.109-19.708 21.211-34.042z"/></g><defs><clipPath id="a"><path fill="#fff" d="M.777 0h176v153h-176z"/></clipPath></defs></svg>
